!!!COM: Mozart, Wolfgang Amadeus
!!!OTL: String Quartet No. 11 in E-flat Major
!!!OMD: Andante
!!!OMV: 3
!!!SCT1: K<sup>1</sup> 171
!!!SCA: Chronologisch-thematisches Verzeichnis sämtlicher Tonwerke Wolfgang Amade Mozarts (L. von Köchel; 1862, 2/1905, 3/1937, 1947)
!!!SCT2: K<sup>6</sup> 171
!!!YOR: Breitkopf & Härtel Edition
!!!ENC: Frances Bennion
!!!CDT: 1756/1/27/-1791/12/5/
!!!OCY: Österreich
!!!YEC: Copyright (c) 1994, 2000 Center for Computer Assisted Research in the Humanities
!!!YEM: Rights to all derivative editions reserved.
!!!YEM: Refer to licensing agreement for further details.
!!!YEN: United States of America
**kern	**kern	**kern	**kern
*k[b-e-a-]	*k[b-e-a-]	*k[b-e-a-]	*k[b-e-a-]
*c:	*c:	*c:	*c:
*clefC	*clefF	*clefG	*clefG
*M4/4	*M4/4	*M4/4	*M4/4
8r	1r	1r	8c
8C	.	.	8G
8E-	.	.	16r
.	.	.	16g
8C	.	.	16e-
.	.	.	16c
8G	.	.	16B
.	.	.	16d
16.E-	.	.	16c
.	.	.	16e-
32D	.	.	.
8E-	.	.	16r
.	.	.	16g
8C	.	.	16e-
.	.	.	16c
=2	=2	=2	=2
8G	1r	1r	16B
.	.	.	16d
8E-	.	.	16c
.	.	.	16e-
16r	.	.	[4A-
16F	.	.	.
16D	.	.	.
16C	.	.	.
8BB	.	.	16A-]
.	.	.	8G
8GG	.	.	.
.	.	.	8f
8r	.	.	.
.	.	.	8e-
8G	.	.	.
.	.	.	16d
=3	=3	=3	=3
8C	8r	8g	16e-
.	.	.	16f
8E-	8G	8c	8g
2.r	8c	16r	2.r
.	.	16cc	.
.	8e-	16a	.
.	.	16g	.
.	8c	16f#	.
.	.	16a	.
.	16.B-	16g	.
.	.	16b-	.
.	32G	.	.
.	8c	16r	.
.	.	16cc	.
.	8e-	16a	.
.	.	16g	.
=4	=4	=4	=4
1r	8d	16f#	1r
.	.	16a	.
.	8B-	16g	.
.	.	16b-	.
.	16r	[4e-	.
.	16c	.	.
.	16A	.	.
.	16G	.	.
.	8F#	16e-]	.
.	.	8d	.
.	8D	.	.
.	.	8cc	.
.	8r	.	.
.	.	8b-	.
.	8d	.	.
.	.	16a	.
=5	=5	=5	=5
8r	4G	16b-	8r
.	.	16cc	.
16G	.	8dd	16bb-
16A	.	.	16ff#
8B-	4.r	8r	16gg
.	.	.	16dd
8G	.	4g	16ee-
.	.	.	16b
8A	.	.	16dd
.	.	.	16cc
8D	16f#	8f#	16aa
.	16d	.	16ff#
8r	16a	8r	16ccc
.	16f#	.	16aa
8D	8d	8a	16ff#
.	.	.	16cc
=6	=6	=6	=6
8G	4d	16f#	16a
.	.	16g	16b-
8BB-	.	16r	16gg
.	.	16g	16dd
8.C	8.e-	16e-	16cc
.	.	16d	16b-
.	.	16c	16a-
16C#	16e	16B-	16g
8D	4d	16A	8f#
.	.	16d	.
8F#	.	16c#	8r
.	.	16d	.
8A	8r	16c	8.ff#
.	.	16d	.
8D	8c	16A	.
.	.	16d	32ee
.	.	.	32ff#
=7	=7	=7	=7
8G	4B-	16B-	16gg
.	.	16d	16dd
8B-	.	16g	16r
.	.	16d	16ddd
8A	8r	16c	8.ff#
.	.	16d	.
8D	8c	16A	.
.	.	16d	32ee
.	.	.	32ff#
8G	4B-	16B-	16gg
.	.	16d	16dd
8B-	.	16g	16r
.	.	16d	16ddd
8A	8r	16c	8.ff#
.	.	16d	.
8D	8c	16A	.
.	.	16d	32ee
.	.	.	32ff#
=8	=8	=8	=8
4G	4B-	16B-	16gg
.	.	16dd	16bb-
.	.	16a	16ff#
.	.	16b-	16gg
4.r	4.r	16f#	16dd
.	.	16g	16ee-
.	.	16d	16b
.	.	16e-	16cc
.	.	16e-	16cc
.	.	16d	16b-
8G	8d	16r	16r
.	.	16B-	16g
8C	8e-	16r	16r
.	.	16c	16a
8D	8c	16r	16r
.	.	16A	16f#
=9	=9	=9	=9
4G	4B-	16r	16r
.	.	16dd	16bb-
.	.	16a	16ff#
.	.	16b-	16gg
4.r	4.r	16f#	16dd
.	.	16g	16ee-
.	.	16d	16b
.	.	16e-	16cc
.	.	16e-	16cc
.	.	16d	16b-
8G	8d	16r	16r
.	.	16B-	16g
8C	8e-	16r	16r
.	.	16c	16a
8D	8c	16r	16r
.	.	16A	16f#
=10	=10	=10	=10
4G	4c	4A	4f#
8r	8B-	16B-	16g
.	.	16c	16e-
8D	16r	16B-	16d
.	16F#	16A	16c
[4GG	4F#	4A	4c
8GG]	8G	8G	8B-
8r	8r	8r	8r
=11	=11	=11	=11
8r	1r	1r	8e-
8E-	.	.	8B-
8B-	.	.	16r
.	.	.	16a-
8A-	.	.	16f
.	.	.	16d
8G	.	.	16e-
.	.	.	16g
8E-	.	.	16A
.	.	.	16B-
8B-	.	.	16r
.	.	.	16a-
8A-	.	.	16f
.	.	.	16d
=12	=12	=12	=12
8G	1r	1r	16e-
.	.	.	16g
8E-	.	.	16G
.	.	.	16c
8F	.	.	8B-
8BB-	.	.	8A-
4E-	.	.	16G
.	.	.	8g
.	.	.	8d-
4E	.	.	.
.	.	.	8c
.	.	.	16B-
=13	=13	=13	=13
4F	8r	8f	4A-
.	8F	8c	.
2.r	8c	16r	2.r
.	.	16b-	.
.	8B-	16g	.
.	.	16e	.
.	8A-	16f	.
.	.	16a-	.
.	8F	16B	.
.	.	16c	.
.	8c	16r	.
.	.	16b-	.
.	8B-	16g	.
.	.	16e	.
=14	=14	=14	=14
2r	8A-	16f	2r
.	.	16a-	.
.	8F	16A-	.
.	.	16d-	.
.	8G	8c	.
.	8C	8B-	.
8F	4F	4A-	16r
.	.	.	8ccc
8F	.	.	.
.	.	.	8aa-
8F	4r	4r	.
.	.	.	8ff
8F	.	.	.
.	.	.	16cc
=15	=15	=15	=15
8BB-	4a-	16r	32dd
.	.	.	32cc
.	.	8ff	32dd
.	.	.	32ee-
8BB-	.	.	8ff
.	.	8dd	.
8BB-	4d	.	4r
.	.	8b-	.
8BB-	.	.	.
.	.	16f	.
8E-	4e-	32g	16r
.	.	32f	.
.	.	32g	8bb-
.	.	32a-	.
8E-	.	8b-	.
.	.	.	8gg
8E-	4r	4r	.
.	.	.	8ee-
8E-	.	.	.
.	.	.	16b-
=16	=16	=16	=16
8AA-	4g	16r	32cc
.	.	.	32b-
.	.	8ee-	32cc
.	.	.	32dd
8AA-	.	.	8ee-
.	.	8cc	.
8AA-	4c	.	4r
.	.	8a-	.
8AA-	.	.	.
.	.	16e-	.
8D	4d	32f	16r
.	.	32e-	.
.	.	32f	8aa-
.	.	32g	.
8D	.	8a-	.
.	.	.	8ff
8D	4r	4r	.
.	.	.	8dd
8D	.	.	.
.	.	.	16cc
=17	=17	=17	=17
8GG	16r	16r	32b
.	.	.	32a
.	8f	8dd	32b
.	.	.	32cc
8GG	.	.	8dd
.	8d	8b	.
8GG	.	.	4r
.	8B	8g	.
8GG	.	.	.
.	16d	16f	.
8GG	8c	16e-	16r
.	.	8cc	8ee-
8GG	8g	.	.
.	.	8ee-	8gg
8GG	8G	.	.
.	.	8e-	8ccc
8GG	8g	.	.
.	.	16cc	16ee-
=18	=18	=18	=18
16GG	16G	8cc	8ee-
16G	16g	.	.
16F#	16f#	8b	8dd
16G	16g	.	.
8GG	8G	16r	16r
.	.	16e-	16g
8GG	8G	16d	16f
.	.	16c	16e-
8GG	8G	8c	8e-
16r	16r	8B	8d
16A-	16f	.	.
16G	16e-	4r	4r
16F	16d	.	.
16E-	16c	.	.
16D	16B	.	.
=19	=19	=19	=19
8C	4c	1r	8c
8C	.	.	8G
8E-	2.r	.	16r
.	.	.	16g
8C	.	.	16e-
.	.	.	16c
8G	.	.	16B
.	.	.	16d
16.E-	.	.	16c
.	.	.	16e-
32D	.	.	.
8E-	.	.	16r
.	.	.	16g
8C	.	.	16e-
.	.	.	16c
=20	=20	=20	=20
8G	1r	1r	16B
.	.	.	16d
8E-	.	.	16c
.	.	.	16e-
16r	.	.	[4A-
16F	.	.	.
16D	.	.	.
16C	.	.	.
8BB	.	.	16A-]
.	.	.	8G
8GG	.	.	.
.	.	.	8f
8r	.	.	.
.	.	.	8e-
8G	.	.	.
.	.	.	16d
=21	=21	=21	=21
8C	8r	8g	16e-
.	.	.	16f
8E-	8G	8c	8g
2.r	8c	16r	2.r
.	.	16cc	.
.	8e-	16a	.
.	.	16g	.
.	8c	16f#	.
.	.	16a	.
.	16.B-	16g	.
.	.	16b-	.
.	32G	.	.
.	8e-	16r	.
.	.	16cc	.
.	8c	16a	.
.	.	16g	.
=22	=22	=22	=22
1r	8d	16f#	1r
.	.	16a	.
.	8B-	16g	.
.	.	16b-	.
.	16r	[4e-	.
.	16c	.	.
.	16A	.	.
.	16G	.	.
.	8F#	16e-]	.
.	.	8d	.
.	8D	.	.
.	.	8cc	.
.	8r	.	.
.	.	8b-	.
.	8d	.	.
.	.	16a	.
=23	=23	=23	=23
8r	4G	16b-	8r
.	.	16cc	.
16G	.	8dd	16bb-
16A	.	.	16ff#
8B-	4.r	8r	16gg
.	.	.	16dd
8G	.	4g	16ee-
.	.	.	16b
8A	.	.	16dd
.	.	.	16cc
8D	16f#	8f#	16aa
.	16d	.	16ff#
8r	16a	8r	16ccc
.	16f#	.	16aa
8D	8d	8a	16ff#
.	.	.	16cc
=24	=24	=24	=24
8G	8d	16f#	16a
.	.	16g	16b-
8BB	8g	4r	16gg
.	.	.	16dd
8C	4G	.	16ee-
.	.	.	16b
8E-	.	4c	16cc
.	.	.	16a-
8D	8r	.	16g
.	.	.	16f
8GG	16B	8B	16dd
.	16G	.	16b
8r	16d	8r	16ff
.	16B	.	16dd
8G	8G	8d	16b
.	.	.	16f
=25	=25	=25	=25
8C	4G	16B	16d
.	.	16c	16e-
8E-	.	16r	16cc
.	.	16cc	16gg
8.F	8.A-	16a-	16ff
.	.	16g	16ee-
.	.	16f	16dd
16F#	16A	16e-	16cc
8G	4G	16d	8b
.	.	16g	.
8B	.	16f#	8r
.	.	16g	.
8d	8r	16f	8.b
.	.	16g	.
8G	8f	16d	.
.	.	16g	32a
.	.	.	32b
=26	=26	=26	=26
8c	4e-	16e-	16cc
.	.	16g	16g
8e-	.	16cc	16r
.	.	16g	16gg
8d	8r	16f	8.b
.	.	16g	.
8G	8f	16d	.
.	.	16g	32a
.	.	.	32b
8c	4e-	16e-	16cc
.	.	16g	16g
8E-	.	16cc	16r
.	.	16g	16gg
8D	8r	16f	8.b
.	.	16g	.
8GG	8F	16d	.
.	.	16g	32a
.	.	.	32b
=27	=27	=27	=27
4C	4E-	16e-	16cc
.	.	16gg	16eee-
.	.	16dd	16bb
.	.	16ee-	16ccc
4.r	4.r	16b	16gg
.	.	16cc	16aa-
.	.	16g	16ee
.	.	16a-	16ff
.	.	16a-	16ff
.	.	16g	16ee-
8C	8G	16r	16r
.	.	16e-	16cc
8FF	8A-	16r	16r
.	.	16f	16dd
8GG	8F	16r	16r
.	.	16d	16b
=28	=28	=28	=28
4CC	4E-	16r	16r
.	.	16g	16ee-
.	.	16d	16b
.	.	16e-	16cc
4.r	4..r	16B	16g
.	.	16c	16a-
.	.	16G	16e
.	.	16A-	16f
.	.	16A-	16f
.	.	16G	16e-
8AA-	.	8A-	16r
.	16E-	.	16c
8FF	16r	8A-	16r
.	16F	.	16d
8GG	16r	8G	16r
.	16D	.	16B
=29	=29	=29	=29
4C	8D	[4G	4B
.	8F	.	.
8r	8E-	16G]	16c
.	.	16B	16d
8GG	16r	16c	16e-
.	16B	16d	16f
[4CC	4B	4d	4f
8CC]	8c	8c	8e-
8r	8r	8r	8r
==	==	==	==
*-	*-	*-	*-
!!!RWG1: This file contains only pitch and duration data.
!!!RWG2: Transposing instruments are not transposed.
!!!RWG3: Spines may have incompatible meters.
!!!RWG4: Durations of rests and tied notes may be interpreted.
!!!RWG: Key is interpreted using the Humdrum key tool.
!!!AFT: stage1
!!!END: 1997/04/15
!!!KEY: 728985257
!!!EMD: Converted from MuseData to Humdrum Dec 16, 2000, by Andreas Kornstaedt using muse2kern.
!!!EMD: Manual editing by Craig Sapp, Nov 2001
